dist/images/icons/icon-quote-close.svg

<svg width="24" height="20" viewBox="0 0 24 20" fill="none" xmlns="http://www.w3.org/2000/svg">
<path d="M18.7826 9.595C17.5072 9.71095 16.4638 10.2037 15.6522 11.0733C14.8406 11.9428 14.4348 13.0443 14.4348 14.3776C14.4348 15.8269 14.8696 17.0153 15.7391 17.9428C16.6087 18.8124 17.7101 19.2472 19.0435 19.2472C20.5507 19.2472 21.7681 18.6965 22.6957 17.595C23.5652 16.4936 24 14.7834 24 12.4646C24 8.0008 22.5217 4.14573 19.5652 0.899349C18.9855 0.31964 18.3188 0.0297852 17.5652 0.0297852C16.9275 0.0297852 16.3768 0.26167 15.913 0.725439C15.4493 1.13123 15.2174 1.62399 15.2174 2.2037C15.2174 2.84138 15.4493 3.39211 15.913 3.85587C17.4203 5.42109 18.3768 7.33413 18.7826 9.595ZM4.34783 9.595C3.07247 9.71095 2.02899 10.2037 1.2174 11.0733C0.405801 11.9428 1.09963e-06 13.0443 1.09963e-06 14.3776C1.09963e-06 15.8269 0.434785 17.0153 1.30435 17.9428C2.17392 18.8124 3.27536 19.2472 4.6087 19.2472C6.11594 19.2472 7.33333 18.6965 8.26087 17.595C9.13044 16.4936 9.56522 14.7834 9.56522 12.4646C9.56522 8.0008 8.08696 4.14573 5.13044 0.899349C4.55073 0.31964 3.88406 0.0297852 3.13044 0.0297852C2.49276 0.0297852 1.94203 0.26167 1.47826 0.725439C1.0145 1.13123 0.782611 1.62399 0.782611 2.2037C0.782611 2.84138 1.0145 3.39211 1.47826 3.85587C2.98551 5.42109 3.94203 7.33413 4.34783 9.595Z" fill="black"/>
</svg>

<svg width="24" height="20" fill="none" xmlns="http://www.w3.org/2000/svg"><path d="M18.783 9.595c-1.276.116-2.32.609-3.13 1.478-.812.87-1.218 1.971-1.218 3.305 0 1.449.435 2.637 1.304 3.565.87.87 1.971 1.304 3.305 1.304 1.507 0 2.724-.55 3.652-1.652.87-1.101 1.304-2.812 1.304-5.13C24 8 22.522 4.145 19.565.899c-.58-.58-1.246-.87-2-.87-.638 0-1.188.233-1.652.696-.464.406-.696.899-.696 1.479 0 .637.232 1.188.696 1.652 1.507 1.565 2.464 3.478 2.87 5.739zm-14.435 0c-1.276.116-2.319.609-3.13 1.478C.405 11.943 0 13.044 0 14.378c0 1.449.435 2.637 1.304 3.565.87.87 1.971 1.304 3.305 1.304 1.507 0 2.724-.55 3.652-1.652.87-1.101 1.304-2.812 1.304-5.13C9.565 8 8.087 4.145 5.13.899c-.58-.58-1.246-.87-2-.87-.637 0-1.188.233-1.652.696-.464.406-.695.899-.695 1.479 0 .637.231 1.188.695 1.652 1.508 1.565 2.464 3.478 2.87 5.739z" fill="#000"/></svg>
